X: 10
M: C|
L: 1/8
K: Amix
e2a2 a3f | b2a2 e3f | g2e2 g3e | a2g2 d3e |
| e3c A2e2 | g2ec d3^/c | BABA GABd | c2.A2 .A2 |]
P: VAR:
"a."a2 || "b."d2 || "c."cABA |] y8 y8 y8 y8 y8 y8


